proprietary/assets/icons/computer-en-internet/computer.svg

<svg height="64" viewBox="0 0 64 64" width="64" xmlns="http://www.w3.org/2000/svg"><path d="m0 0h64v64h-64z" fill="none"/><path d="m55 7h-46c-1.1045 0-2 .8955-2 2v34.99c0 1.1045.8955 2 2 2h16.5s-.5342 1.9412-1.5 5.01c-.5779 1.8373-2.3791 1.992-2.8691 2h-2.1309c-.5527 0-1 .4478-1 1v2h28v-2c0-.5522-.4473-1-1-1h-2.1309c-.49-.008-2.2912-.1627-2.8691-2-.3881-1.233-.7027-2.2706-.9447-3.0848 0 0-4.4024-.6397-8.9772-1.5323-.3203-.0625-.2812-.2969-.2443-.3828h25.1662c1.1045 0 2-.8955 2-2v-35.0001c0-1.1045-.8955-2-2-2zm-3 32h-40v-27h40z"/><path d="m33.4844 28.1413 3.8641 2.4973 1.5019-2.3223-3.7205-2.4044 2.7635-1.8055-11.8762-2.9083 6.4436 9.7618z"/></svg>

<?xml version="1.0" encoding="utf-8"?>
<!-- Generator: Adobe Illustrator 17.1.0, SVG Export Plug-In . SVG Version: 6.00 Build 0)  -->
<svg version="1.2" baseProfile="tiny" xmlns="http://www.w3.org/2000/svg" xmlns:xlink="http://www.w3.org/1999/xlink" x="0px"
	 y="0px" width="64px" height="64px" viewBox="0 0 64 64" xml:space="preserve">
<g id="_x36_4px_Boxes">
	<rect fill="none" width="64" height="64"/>
</g>
<g id="Production">
	<g>
		<path d="M55,7H9C7.8955,7,7,7.8955,7,9v34.99c0,1.1045,0.8955,2,2,2h16.5c0,0-0.5342,1.9412-1.5,5.01
			c-0.5779,1.8373-2.3791,1.992-2.8691,2H19c-0.5527,0-1,0.4478-1,1v2h28v-2c0-0.5522-0.4473-1-1-1h-2.1309
			c-0.49-0.008-2.2912-0.1627-2.8691-2c-0.3881-1.233-0.7027-2.2706-0.9447-3.0848c0,0-4.4024-0.6397-8.9772-1.5323
			c-0.3203-0.0625-0.2812-0.2969-0.2443-0.3828H55c1.1045,0,2-0.8955,2-2V9C57,7.8955,56.1045,7,55,7z M52,39H12V12h40V39z"/>
		<polygon points="33.4844,28.1413 37.3485,30.6386 38.8504,28.3163 35.1299,25.9119 37.8934,24.1064 26.0172,21.1981 
			32.4608,30.9599 		"/>
	</g>
</g>
</svg>
